images/6604409.svg

<?xml version="1.0" encoding="UTF-8"?>
<svg xmlns="http://www.w3.org/2000/svg" xmlns:xlink="http://www.w3.org/1999/xlink" width="300pt" height="300pt" viewBox="0 0 300 300" version="1.1">
<defs>
<g>
<symbol overflow="visible" id="glyph0-0">
<path style="stroke:none;" d="M 0.453125 1.59375 L 0.453125 -6.34375 L 4.953125 -6.34375 L 4.953125 1.59375 Z M 0.953125 1.09375 L 4.453125 1.09375 L 4.453125 -5.84375 L 0.953125 -5.84375 Z M 0.953125 1.09375 "/>
</symbol>
<symbol overflow="visible" id="glyph0-1">
<path style="stroke:none;" d="M 0.890625 -6.5625 L 2.078125 -6.5625 L 4.984375 -1.078125 L 4.984375 -6.5625 L 5.84375 -6.5625 L 5.84375 0 L 4.65625 0 L 1.75 -5.484375 L 1.75 0 L 0.890625 0 Z M 0.890625 -6.5625 "/>
</symbol>
<symbol overflow="visible" id="glyph0-2">
<path style="stroke:none;" d="M 4.8125 -6.34375 L 4.8125 -5.484375 C 4.476562 -5.640625 4.160156 -5.753906 3.859375 -5.828125 C 3.566406 -5.910156 3.28125 -5.953125 3 -5.953125 C 2.507812 -5.953125 2.132812 -5.859375 1.875 -5.671875 C 1.613281 -5.484375 1.484375 -5.21875 1.484375 -4.875 C 1.484375 -4.582031 1.570312 -4.363281 1.75 -4.21875 C 1.925781 -4.070312 2.253906 -3.953125 2.734375 -3.859375 L 3.28125 -3.75 C 3.9375 -3.625 4.421875 -3.398438 4.734375 -3.078125 C 5.054688 -2.765625 5.21875 -2.34375 5.21875 -1.8125 C 5.21875 -1.175781 5.003906 -0.691406 4.578125 -0.359375 C 4.148438 -0.0351562 3.523438 0.125 2.703125 0.125 C 2.390625 0.125 2.054688 0.0859375 1.703125 0.015625 C 1.359375 -0.046875 1 -0.148438 0.625 -0.296875 L 0.625 -1.203125 C 0.976562 -1.003906 1.328125 -0.851562 1.671875 -0.75 C 2.023438 -0.644531 2.367188 -0.59375 2.703125 -0.59375 C 3.203125 -0.59375 3.585938 -0.691406 3.859375 -0.890625 C 4.140625 -1.085938 4.28125 -1.375 4.28125 -1.75 C 4.28125 -2.070312 4.179688 -2.320312 3.984375 -2.5 C 3.785156 -2.675781 3.460938 -2.8125 3.015625 -2.90625 L 2.46875 -3.015625 C 1.8125 -3.148438 1.332031 -3.359375 1.03125 -3.640625 C 0.738281 -3.921875 0.59375 -4.3125 0.59375 -4.8125 C 0.59375 -5.382812 0.796875 -5.835938 1.203125 -6.171875 C 1.609375 -6.515625 2.171875 -6.6875 2.890625 -6.6875 C 3.203125 -6.6875 3.515625 -6.65625 3.828125 -6.59375 C 4.148438 -6.539062 4.476562 -6.457031 4.8125 -6.34375 Z M 4.8125 -6.34375 "/>
</symbol>
<symbol overflow="visible" id="glyph0-3">
<path style="stroke:none;" d="M 0.890625 -6.5625 L 1.765625 -6.5625 L 1.765625 -3.875 L 5 -3.875 L 5 -6.5625 L 5.890625 -6.5625 L 5.890625 0 L 5 0 L 5 -3.125 L 1.765625 -3.125 L 1.765625 0 L 0.890625 0 Z M 0.890625 -6.5625 "/>
</symbol>
</g>
</defs>
<g id="surface33113">
<rect x="0" y="0" width="300" height="300" style="fill:rgb(100%,100%,100%);fill-opacity:1;stroke:none;"/>
<path style="fill:none;stroke-width:1.2;stroke-linecap:butt;stroke-linejoin:miter;stroke:rgb(0%,0%,0%);stroke-opacity:1;stroke-miterlimit:10;" d="M 255.28125 181.617188 L 249.167969 157.914062 "/>
<path style="fill:none;stroke-width:1.2;stroke-linecap:butt;stroke-linejoin:miter;stroke:rgb(0%,0%,0%);stroke-opacity:1;stroke-miterlimit:10;" d="M 249.167969 157.914062 L 256.957031 148.476562 "/>
<path style="fill:none;stroke-width:1.2;stroke-linecap:butt;stroke-linejoin:miter;stroke:rgb(0%,0%,100%);stroke-opacity:1;stroke-miterlimit:10;" d="M 256.957031 148.476562 L 264.75 139.035156 "/>
<path style="fill:none;stroke-width:1.2;stroke-linecap:butt;stroke-linejoin:miter;stroke:rgb(0%,0%,0%);stroke-opacity:1;stroke-miterlimit:10;" d="M 246.285156 152.359375 L 252.515625 144.808594 "/>
<path style="fill:none;stroke-width:1.2;stroke-linecap:butt;stroke-linejoin:miter;stroke:rgb(0%,0%,100%);stroke-opacity:1;stroke-miterlimit:10;" d="M 252.515625 144.808594 L 258.75 137.257812 "/>
<path style="fill:none;stroke-width:1.2;stroke-linecap:butt;stroke-linejoin:miter;stroke:rgb(0%,0%,0%);stroke-opacity:1;stroke-miterlimit:10;" d="M 226.398438 148.929688 L 249.167969 157.914062 "/>
<path style="fill:none;stroke-width:1.2;stroke-linecap:butt;stroke-linejoin:miter;stroke:rgb(0%,0%,100%);stroke-opacity:1;stroke-miterlimit:10;" d="M 264.75 139.035156 L 258.179688 128.707031 "/>
<path style="fill:none;stroke-width:1.2;stroke-linecap:butt;stroke-linejoin:miter;stroke:rgb(0%,0%,0%);stroke-opacity:1;stroke-miterlimit:10;" d="M 258.179688 128.707031 L 251.609375 118.382812 "/>
<path style=" stroke:none;fill-rule:nonzero;fill:rgb(100%,100%,100%);fill-opacity:1;" d="M 261.75 133.535156 L 268.75 133.535156 L 268.75 144.535156 L 261.75 144.535156 Z M 261.75 133.535156 "/>
<g style="fill:rgb(0%,0%,100%);fill-opacity:1;">
  <use xlink:href="#glyph0-1" x="261.75" y="142.198242"/>
</g>
<path style="fill:none;stroke-width:1.2;stroke-linecap:butt;stroke-linejoin:miter;stroke:rgb(0%,0%,0%);stroke-opacity:1;stroke-miterlimit:10;" d="M 251.609375 118.382812 L 239.757812 121.4375 "/>
<path style="fill:none;stroke-width:1.2;stroke-linecap:butt;stroke-linejoin:miter;stroke:rgb(0%,0%,100%);stroke-opacity:1;stroke-miterlimit:10;" d="M 239.757812 121.4375 L 227.90625 124.496094 "/>
<path style="fill:none;stroke-width:1.2;stroke-linecap:butt;stroke-linejoin:miter;stroke:rgb(0%,0%,0%);stroke-opacity:1;stroke-miterlimit:10;" d="M 250.679688 124.570312 L 241.199219 127.015625 "/>
<path style="fill:none;stroke-width:1.2;stroke-linecap:butt;stroke-linejoin:miter;stroke:rgb(0%,0%,100%);stroke-opacity:1;stroke-miterlimit:10;" d="M 241.199219 127.015625 L 231.714844 129.460938 "/>
<path style="fill:none;stroke-width:1.2;stroke-linecap:butt;stroke-linejoin:miter;stroke:rgb(0%,0%,100%);stroke-opacity:1;stroke-miterlimit:10;" d="M 227.90625 124.496094 L 227.152344 136.710938 "/>
<path style="fill:none;stroke-width:1.2;stroke-linecap:butt;stroke-linejoin:miter;stroke:rgb(0%,0%,0%);stroke-opacity:1;stroke-miterlimit:10;" d="M 227.152344 136.710938 L 226.398438 148.929688 "/>
<path style=" stroke:none;fill-rule:nonzero;fill:rgb(100%,100%,100%);fill-opacity:1;" d="M 224.90625 118.996094 L 231.90625 118.996094 L 231.90625 129.996094 L 224.90625 129.996094 Z M 224.90625 118.996094 "/>
<g style="fill:rgb(0%,0%,100%);fill-opacity:1;">
  <use xlink:href="#glyph0-1" x="224.90625" y="127.65918"/>
</g>
<path style=" stroke:none;fill-rule:nonzero;fill:rgb(0%,0%,0%);fill-opacity:1;" d="M 226.398438 148.929688 L 203.425781 158.421875 L 208.0625 165.710938 Z M 226.398438 148.929688 "/>
<path style="fill:none;stroke-width:1.2;stroke-linecap:butt;stroke-linejoin:miter;stroke:rgb(0%,0%,0%);stroke-opacity:1;stroke-miterlimit:10;" d="M 205.742188 162.066406 L 194.890625 156.410156 "/>
<path style="fill:none;stroke-width:1.2;stroke-linecap:butt;stroke-linejoin:miter;stroke:rgb(80%,80%,0%);stroke-opacity:1;stroke-miterlimit:10;" d="M 194.890625 156.410156 L 184.035156 150.75 "/>
<path style="fill:none;stroke-width:1.2;stroke-linecap:butt;stroke-linejoin:miter;stroke:rgb(80%,80%,0%);stroke-opacity:1;stroke-miterlimit:10;" d="M 184.035156 150.75 L 173.710938 157.320312 "/>
<path style="fill:none;stroke-width:1.2;stroke-linecap:butt;stroke-linejoin:miter;stroke:rgb(0%,0%,0%);stroke-opacity:1;stroke-miterlimit:10;" d="M 173.710938 157.320312 L 163.382812 163.890625 "/>
<path style=" stroke:none;fill-rule:nonzero;fill:rgb(100%,100%,100%);fill-opacity:1;" d="M 181.035156 145.25 L 187.035156 145.25 L 187.035156 156.25 L 181.035156 156.25 Z M 181.035156 145.25 "/>
<g style="fill:rgb(80%,80%,0%);fill-opacity:1;">
  <use xlink:href="#glyph0-2" x="181.035156" y="153.913086"/>
</g>
<path style="fill:none;stroke-width:1.2;stroke-linecap:butt;stroke-linejoin:miter;stroke:rgb(0%,0%,0%);stroke-opacity:1;stroke-miterlimit:10;" d="M 163.382812 163.890625 L 141.675781 152.570312 "/>
<path style="fill:none;stroke-width:1.2;stroke-linecap:butt;stroke-linejoin:miter;stroke:rgb(0%,0%,0%);stroke-opacity:1;stroke-miterlimit:10;" d="M 141.675781 152.570312 L 131.347656 159.140625 "/>
<path style="fill:none;stroke-width:1.2;stroke-linecap:butt;stroke-linejoin:miter;stroke:rgb(0%,0%,100%);stroke-opacity:1;stroke-miterlimit:10;" d="M 131.347656 159.140625 L 121.023438 165.710938 "/>
<path style="fill:none;stroke-width:1.2;stroke-linecap:butt;stroke-linejoin:miter;stroke:rgb(0%,0%,100%);stroke-opacity:1;stroke-miterlimit:10;" d="M 121.023438 165.710938 L 110.167969 160.054688 "/>
<path style="fill:none;stroke-width:1.2;stroke-linecap:butt;stroke-linejoin:miter;stroke:rgb(0%,0%,0%);stroke-opacity:1;stroke-miterlimit:10;" d="M 110.167969 160.054688 L 99.316406 154.394531 "/>
<path style=" stroke:none;fill-rule:nonzero;fill:rgb(100%,100%,100%);fill-opacity:1;" d="M 114.023438 160.210938 L 128.023438 160.210938 L 128.023438 171.210938 L 114.023438 171.210938 Z M 114.023438 160.210938 "/>
<g style="fill:rgb(0%,0%,100%);fill-opacity:1;">
  <use xlink:href="#glyph0-1" x="114.023438" y="168.874023"/>
  <use xlink:href="#glyph0-3" x="121.000977" y="168.874023"/>
</g>
<path style="fill:none;stroke-width:1.2;stroke-linecap:butt;stroke-linejoin:miter;stroke:rgb(0%,0%,0%);stroke-opacity:1;stroke-miterlimit:10;" d="M 99.316406 154.394531 L 98.789062 142.164062 "/>
<path style="fill:none;stroke-width:1.2;stroke-linecap:butt;stroke-linejoin:miter;stroke:rgb(0%,0%,100%);stroke-opacity:1;stroke-miterlimit:10;" d="M 98.789062 142.164062 L 98.265625 129.9375 "/>
<path style="fill:none;stroke-width:1.2;stroke-linecap:butt;stroke-linejoin:miter;stroke:rgb(0%,0%,0%);stroke-opacity:1;stroke-miterlimit:10;" d="M 104.964844 151.699219 L 104.542969 141.917969 "/>
<path style="fill:none;stroke-width:1.2;stroke-linecap:butt;stroke-linejoin:miter;stroke:rgb(0%,0%,100%);stroke-opacity:1;stroke-miterlimit:10;" d="M 104.542969 141.917969 L 104.125 132.136719 "/>
<path style="fill:none;stroke-width:1.2;stroke-linecap:butt;stroke-linejoin:miter;stroke:rgb(0%,0%,0%);stroke-opacity:1;stroke-miterlimit:10;" d="M 99.316406 154.394531 L 88.988281 160.964844 "/>
<path style="fill:none;stroke-width:1.2;stroke-linecap:butt;stroke-linejoin:miter;stroke:rgb(0%,0%,100%);stroke-opacity:1;stroke-miterlimit:10;" d="M 88.988281 160.964844 L 78.664062 167.535156 "/>
<path style="fill:none;stroke-width:1.2;stroke-linecap:butt;stroke-linejoin:miter;stroke:rgb(0%,0%,100%);stroke-opacity:1;stroke-miterlimit:10;" d="M 98.265625 129.9375 L 87.410156 124.277344 "/>
<path style="fill:none;stroke-width:1.2;stroke-linecap:butt;stroke-linejoin:miter;stroke:rgb(0%,0%,0%);stroke-opacity:1;stroke-miterlimit:10;" d="M 87.410156 124.277344 L 76.558594 118.621094 "/>
<path style=" stroke:none;fill-rule:nonzero;fill:rgb(100%,100%,100%);fill-opacity:1;" d="M 95.265625 124.4375 L 102.265625 124.4375 L 102.265625 135.4375 L 95.265625 135.4375 Z M 95.265625 124.4375 "/>
<g style="fill:rgb(0%,0%,100%);fill-opacity:1;">
  <use xlink:href="#glyph0-1" x="95.265625" y="133.100586"/>
</g>
<path style="fill:none;stroke-width:1.2;stroke-linecap:butt;stroke-linejoin:miter;stroke:rgb(0%,0%,100%);stroke-opacity:1;stroke-miterlimit:10;" d="M 78.664062 167.535156 L 67.808594 161.875 "/>
<path style="fill:none;stroke-width:1.2;stroke-linecap:butt;stroke-linejoin:miter;stroke:rgb(0%,0%,0%);stroke-opacity:1;stroke-miterlimit:10;" d="M 67.808594 161.875 L 56.957031 156.214844 "/>
<path style=" stroke:none;fill-rule:nonzero;fill:rgb(100%,100%,100%);fill-opacity:1;" d="M 71.664062 162.035156 L 85.664062 162.035156 L 85.664062 173.035156 L 71.664062 173.035156 Z M 71.664062 162.035156 "/>
<g style="fill:rgb(0%,0%,100%);fill-opacity:1;">
  <use xlink:href="#glyph0-1" x="71.664062" y="170.698242"/>
  <use xlink:href="#glyph0-3" x="78.641602" y="170.698242"/>
</g>
<path style="fill:none;stroke-width:1.2;stroke-linecap:butt;stroke-linejoin:miter;stroke:rgb(0%,0%,0%);stroke-opacity:1;stroke-miterlimit:10;" d="M 56.957031 156.214844 L 46.101562 150.558594 "/>
<path style="fill:none;stroke-width:1.2;stroke-linecap:butt;stroke-linejoin:miter;stroke:rgb(0%,0%,100%);stroke-opacity:1;stroke-miterlimit:10;" d="M 46.101562 150.558594 L 35.25 144.898438 "/>
<path style="fill:none;stroke-width:1.2;stroke-linecap:butt;stroke-linejoin:miter;stroke:rgb(0%,0%,0%);stroke-opacity:1;stroke-miterlimit:10;" d="M 57.449219 149.976562 L 48.765625 145.449219 "/>
<path style="fill:none;stroke-width:1.2;stroke-linecap:butt;stroke-linejoin:miter;stroke:rgb(0%,0%,100%);stroke-opacity:1;stroke-miterlimit:10;" d="M 48.765625 145.449219 L 40.082031 140.921875 "/>
<path style="fill:none;stroke-width:1.2;stroke-linecap:butt;stroke-linejoin:miter;stroke:rgb(0%,0%,0%);stroke-opacity:1;stroke-miterlimit:10;" d="M 52.121094 160.191406 L 43.441406 155.664062 "/>
<path style="fill:none;stroke-width:1.2;stroke-linecap:butt;stroke-linejoin:miter;stroke:rgb(0%,0%,100%);stroke-opacity:1;stroke-miterlimit:10;" d="M 43.441406 155.664062 L 34.757812 151.136719 "/>
<path style=" stroke:none;fill-rule:nonzero;fill:rgb(100%,100%,100%);fill-opacity:1;" d="M 28.25 139.398438 L 35.25 139.398438 L 35.25 150.398438 L 28.25 150.398438 Z M 28.25 139.398438 "/>
<g style="fill:rgb(0%,0%,100%);fill-opacity:1;">
  <use xlink:href="#glyph0-1" x="28.25" y="148.061523"/>
</g>
</g>
</svg>

<svg xmlns="http://www.w3.org/2000/svg" xmlns:xlink="http://www.w3.org/1999/xlink" width="300pt" height="300pt" viewBox="0 0 300 300"><defs><symbol overflow="visible"><path d="M.453 1.594v-7.938h4.5v7.938zm.5-.5h3.5v-6.938h-3.5zm0 0"/></symbol><symbol overflow="visible" id="a"><path d="M.89-6.563H2.08l2.906 5.485v-5.484h.86V0H4.656L1.75-5.484V0H.89zm0 0"/></symbol><symbol overflow="visible" id="b"><path d="M4.813-6.344v.86c-.336-.157-.653-.27-.954-.344-.294-.082-.58-.125-.86-.125-.492 0-.867.094-1.125.28-.262.19-.39.454-.39.798 0 .293.085.512.265.656.176.15.504.267.984.36l.547.11c.658.125 1.142.352 1.454.672.32.312.485.734.485 1.265 0 .637-.216 1.122-.642 1.454-.43.325-1.055.485-1.875.485-.312 0-.648-.04-1-.11C1.36-.046 1-.147.625-.296v-.906c.352.2.703.35 1.047.453.35.105.695.156 1.03.156.5 0 .884-.097 1.157-.297.28-.196.42-.485.42-.86 0-.32-.1-.57-.296-.75-.2-.176-.523-.313-.968-.406l-.547-.11C1.81-3.148 1.33-3.36 1.03-3.64.74-3.923.595-4.313.595-4.813c0-.57.203-1.024.61-1.36.405-.344.968-.516 1.687-.516.313 0 .626.032.938.094.32.055.65.137.985.25zm0 0"/></symbol><symbol overflow="visible" id="c"><path d="M.89-6.563h.876v2.688H5v-2.688h.89V0H5v-3.125H1.766V0H.89zm0 0"/></symbol></defs><g><path fill="#fff" d="M0 0h300v300H0z"/><path d="M255.28 181.617l-6.112-23.703M249.168 157.914l7.79-9.437" stroke-width="1.2" stroke="#000" stroke-miterlimit="10" fill="none"/><path d="M256.957 148.477l7.793-9.442" stroke-width="1.2" stroke="#00f" stroke-miterlimit="10" fill="none"/><path d="M246.285 152.36l6.23-7.55" stroke-width="1.2" stroke="#000" stroke-miterlimit="10" fill="none"/><path d="M252.516 144.81l6.234-7.552" stroke-width="1.2" stroke="#00f" stroke-miterlimit="10" fill="none"/><path d="M226.398 148.93l22.77 8.984" stroke-width="1.2" stroke="#000" stroke-miterlimit="10" fill="none"/><path d="M264.75 139.035l-6.57-10.328" stroke-width="1.2" stroke="#00f" stroke-miterlimit="10" fill="none"/><path d="M258.18 128.707l-6.57-10.324" stroke-width="1.2" stroke="#000" stroke-miterlimit="10" fill="none"/><path d="M261.75 133.535h7v11h-7zm0 0" fill="#fff"/><use xlink:href="#a" x="261.75" y="142.198" fill="#00f"/><path d="M251.61 118.383l-11.852 3.055" stroke-width="1.2" stroke="#000" stroke-miterlimit="10" fill="none"/><path d="M239.758 121.438l-11.852 3.058" stroke-width="1.2" stroke="#00f" stroke-miterlimit="10" fill="none"/><path d="M250.68 124.57l-9.48 2.446" stroke-width="1.2" stroke="#000" stroke-miterlimit="10" fill="none"/><path d="M241.2 127.016l-9.485 2.445M227.906 124.496l-.754 12.215" stroke-width="1.2" stroke="#00f" stroke-miterlimit="10" fill="none"/><path d="M227.152 136.71l-.754 12.22" stroke-width="1.2" stroke="#000" stroke-miterlimit="10" fill="none"/><path d="M224.906 118.996h7v11h-7zm0 0" fill="#fff"/><use xlink:href="#a" x="224.906" y="127.659" fill="#00f"/><path d="M226.398 148.93l-22.972 9.492 4.637 7.29zm0 0"/><path d="M205.742 162.066l-10.85-5.656" stroke-width="1.2" stroke="#000" stroke-miterlimit="10" fill="none"/><path d="M194.89 156.41l-10.855-5.66M184.035 150.75l-10.324 6.57" stroke-width="1.2" stroke="#cc0" stroke-miterlimit="10" fill="none"/><path d="M173.71 157.32l-10.327 6.57" stroke-width="1.2" stroke="#000" stroke-miterlimit="10" fill="none"/><path d="M181.035 145.25h6v11h-6zm0 0" fill="#fff"/><use xlink:href="#b" x="181.035" y="153.913" fill="#cc0"/><path d="M163.383 163.89l-21.707-11.32M141.676 152.57l-10.328 6.57" stroke-width="1.2" stroke="#000" stroke-miterlimit="10" fill="none"/><path d="M131.348 159.14l-10.325 6.57M121.023 165.71l-10.855-5.655" stroke-width="1.2" stroke="#00f" stroke-miterlimit="10" fill="none"/><path d="M110.168 160.055l-10.852-5.66" stroke-width="1.2" stroke="#000" stroke-miterlimit="10" fill="none"/><path d="M114.023 160.21h14v11h-14zm0 0" fill="#fff"/><g fill="#00f"><use xlink:href="#a" x="114.023" y="168.874"/><use xlink:href="#c" x="121.001" y="168.874"/></g><path d="M99.316 154.395l-.527-12.23" stroke-width="1.2" stroke="#000" stroke-miterlimit="10" fill="none"/><path d="M98.79 142.164l-.524-12.226" stroke-width="1.2" stroke="#00f" stroke-miterlimit="10" fill="none"/><path d="M104.965 151.7l-.422-9.782" stroke-width="1.2" stroke="#000" stroke-miterlimit="10" fill="none"/><path d="M104.543 141.918l-.418-9.78" stroke-width="1.2" stroke="#00f" stroke-miterlimit="10" fill="none"/><path d="M99.316 154.395l-10.328 6.57" stroke-width="1.2" stroke="#000" stroke-miterlimit="10" fill="none"/><path d="M88.988 160.965l-10.324 6.57M98.266 129.938l-10.856-5.66" stroke-width="1.2" stroke="#00f" stroke-miterlimit="10" fill="none"/><path d="M87.41 124.277l-10.85-5.656" stroke-width="1.2" stroke="#000" stroke-miterlimit="10" fill="none"/><path d="M95.266 124.438h7v11h-7zm0 0" fill="#fff"/><use xlink:href="#a" x="95.266" y="133.101" fill="#00f"/><path d="M78.664 167.535l-10.855-5.66" stroke-width="1.2" stroke="#00f" stroke-miterlimit="10" fill="none"/><path d="M67.81 161.875l-10.853-5.66" stroke-width="1.2" stroke="#000" stroke-miterlimit="10" fill="none"/><path d="M71.664 162.035h14v11h-14zm0 0" fill="#fff"/><g fill="#00f"><use xlink:href="#a" x="71.664" y="170.698"/><use xlink:href="#c" x="78.642" y="170.698"/></g><path d="M56.957 156.215l-10.855-5.656" stroke-width="1.2" stroke="#000" stroke-miterlimit="10" fill="none"/><path d="M46.102 150.56l-10.852-5.662" stroke-width="1.2" stroke="#00f" stroke-miterlimit="10" fill="none"/><path d="M57.45 149.977l-8.684-4.528" stroke-width="1.2" stroke="#000" stroke-miterlimit="10" fill="none"/><path d="M48.766 145.45l-8.684-4.528" stroke-width="1.2" stroke="#00f" stroke-miterlimit="10" fill="none"/><path d="M52.12 160.19l-8.68-4.526" stroke-width="1.2" stroke="#000" stroke-miterlimit="10" fill="none"/><path d="M43.44 155.664l-8.682-4.527" stroke-width="1.2" stroke="#00f" stroke-miterlimit="10" fill="none"/><path d="M28.25 139.398h7v11h-7zm0 0" fill="#fff"/><use xlink:href="#a" x="28.25" y="148.062" fill="#00f"/></g></svg>
